gtk-icons/Papirus-Dark-GTK/24x24/actions/format-list-unordered.svg

<?xml version="1.0" encoding="UTF-8" standalone="no"?>
<!-- Created with Inkscape (http://www.inkscape.org/) -->
<svg id="svg3049" xmlns:rdf="http://www.w3.org/1999/02/22-rdf-syntax-ns#" xmlns="http://www.w3.org/2000/svg" height="24" width="24" version="1.1" xmlns:cc="http://creativecommons.org/ns#" xmlns:dc="http://purl.org/dc/elements/1.1/">
 <defs id="defs3051">
  <style id="current-color-scheme" type="text/css">.ColorScheme-Text {
        color:#4d4d4d;
      }
      .ColorScheme-Background {
        color:#eff0f1;
      }
      .ColorScheme-Highlight {
        color:#3daee9;
      }
      .ColorScheme-ViewText {
        color:#31363b;
      }
      .ColorScheme-ViewBackground {
        color:#fcfcfc;
      }
      .ColorScheme-ViewHover {
        color:#93cee9;
      }
      .ColorScheme-ViewFocus{
        color:#3daee9;
      }
      .ColorScheme-ButtonText {
        color:#31363b;
      }
      .ColorScheme-ButtonBackground {
        color:#eff0f1;
      }
      .ColorScheme-ButtonHover {
        color:#93cee9;
      }
      .ColorScheme-ButtonFocus{
        color:#3daee9;
      }</style>
 </defs>
 <metadata id="metadata3054">
  <rdf:RDF>
   <cc:Work rdf:about="">
    <dc:format>image/svg+xml</dc:format>
    <dc:type rdf:resource="http://purl.org/dc/dcmitype/StillImage"/>
    <dc:title/>
   </cc:Work>
  </rdf:RDF>
 </metadata>
 <g id="layer1" transform="translate(-421.71 -523.79)">
  <path id="path4224" opacity=".72" style="color:#4d4d4d" d="m8.5 5a2.5 2.5 0 0 0 -2.5 2.5 2.5 2.5 0 0 0 2.5 2.5 2.5 2.5 0 0 0 2.5 -2.5 2.5 2.5 0 0 0 -2.5 -2.5zm4.5 0v2h6v-2h-6zm0 3v2h4v-2h-4zm-4.5 5a2.5 2.5 0 0 0 -2.5 2.5 2.5 2.5 0 0 0 2.5 2.5 2.5 2.5 0 0 0 2.5 -2.5 2.5 2.5 0 0 0 -2.5 -2.5zm4.5 0v2h6v-2h-6zm0 3v2h2v-2h-2zm3 0v2h1.875 0.125 1v-2h-1-0.125-1.875z" transform="translate(421.71 523.79)" fill="#fff"/>
 </g>
</svg>

<?xml version="1.0" encoding="UTF-8" standalone="no"?>
<!-- Created with Inkscape (http://www.inkscape.org/) -->

<svg
   xmlns:dc="http://purl.org/dc/elements/1.1/"
   xmlns:cc="http://creativecommons.org/ns#"
   xmlns:rdf="http://www.w3.org/1999/02/22-rdf-syntax-ns#"
   xmlns:svg="http://www.w3.org/2000/svg"
   xmlns="http://www.w3.org/2000/svg"
   xmlns:sodipodi="http://sodipodi.sourceforge.net/DTD/sodipodi-0.dtd"
   xmlns:inkscape="http://www.inkscape.org/namespaces/inkscape"
   width="24"
   height="24"
   id="svg3049"
   version="1.1"
   inkscape:version="0.91 r13725"
   sodipodi:docname="format-list-unordered.svg"
   inkscape:export-filename="/home/uri/.kde/share/icons/NITRUX-KDE/16x16/actions/view-right-new.png"
   inkscape:export-xdpi="30"
   inkscape:export-ydpi="30">
  <defs
     id="defs3051">
    <style
       type="text/css"
       id="current-color-scheme">
      .ColorScheme-Text {
        color:#4d4d4d;
      }
      .ColorScheme-Background {
        color:#eff0f1;
      }
      .ColorScheme-Highlight {
        color:#3daee9;
      }
      .ColorScheme-ViewText {
        color:#31363b;
      }
      .ColorScheme-ViewBackground {
        color:#fcfcfc;
      }
      .ColorScheme-ViewHover {
        color:#93cee9;
      }
      .ColorScheme-ViewFocus{
        color:#3daee9;
      }
      .ColorScheme-ButtonText {
        color:#31363b;
      }
      .ColorScheme-ButtonBackground {
        color:#eff0f1;
      }
      .ColorScheme-ButtonHover {
        color:#93cee9;
      }
      .ColorScheme-ButtonFocus{
        color:#3daee9;
      }
      </style>
  </defs>
  <sodipodi:namedview
     id="base"
     pagecolor="#ffffff"
     bordercolor="#666666"
     borderopacity="1.0"
     inkscape:pageopacity="0.0"
     inkscape:pageshadow="2"
     inkscape:zoom="23.708333"
     inkscape:cx="12"
     inkscape:cy="12"
     inkscape:document-units="px"
     inkscape:current-layer="layer1"
     showgrid="false"
     fit-margin-top="0"
     fit-margin-left="0"
     fit-margin-right="0"
     fit-margin-bottom="0"
     inkscape:window-width="1407"
     inkscape:window-height="754"
     inkscape:window-x="97"
     inkscape:window-y="42"
     inkscape:window-maximized="0"
     inkscape:showpageshadow="false"
     borderlayer="true"
     inkscape:snap-bbox="true"
     inkscape:snap-global="true"
     showguides="false">
    <inkscape:grid
       type="xygrid"
       id="grid4085" />
    <sodipodi:guide
       position="2,15"
       orientation="12,0"
       id="guide4075" />
    <sodipodi:guide
       position="17,2"
       orientation="0,12"
       id="guide4077" />
    <sodipodi:guide
       position="14,13"
       orientation="-12,0"
       id="guide4079" />
    <sodipodi:guide
       position="0,14"
       orientation="0,-12"
       id="guide4081" />
  </sodipodi:namedview>
  <metadata
     id="metadata3054">
    <rdf:RDF>
      <cc:Work
         rdf:about="">
        <dc:format>image/svg+xml</dc:format>
        <dc:type
           rdf:resource="http://purl.org/dc/dcmitype/StillImage" />
        <dc:title></dc:title>
      </cc:Work>
    </rdf:RDF>
  </metadata>
  <g
     inkscape:label="Capa 1"
     inkscape:groupmode="layer"
     id="layer1"
     transform="translate(-421.71429,-523.79074)">
    <g
       transform="translate(418.71429,-499.57146)"
       id="layer1-1"
       inkscape:label="Capa 1" />
    <path
       style="color:#4d4d4d;opacity:0.72;fill:#ffffff;fill-opacity:1;stroke:none"
       d="M 8.5 5 A 2.5 2.5 0 0 0 6 7.5 A 2.5 2.5 0 0 0 8.5 10 A 2.5 2.5 0 0 0 11 7.5 A 2.5 2.5 0 0 0 8.5 5 z M 13 5 L 13 7 L 19 7 L 19 5 L 13 5 z M 13 8 L 13 10 L 17 10 L 17 8 L 13 8 z M 8.5 13 A 2.5 2.5 0 0 0 6 15.5 A 2.5 2.5 0 0 0 8.5 18 A 2.5 2.5 0 0 0 11 15.5 A 2.5 2.5 0 0 0 8.5 13 z M 13 13 L 13 15 L 19 15 L 19 13 L 13 13 z M 13 16 L 13 18 L 15 18 L 15 16 L 13 16 z M 16 16 L 16 18 L 17.875 18 L 18 18 L 19 18 L 19 16 L 18 16 L 17.875 16 L 16 16 z "
       transform="translate(421.71429,523.79074)"
       id="path4224" />
  </g>
</svg>
